X: 36813
T: Shetland Times And Tatties
R: waltz
M: 3/4
K: Dmajor
A,2|D3 E ED|E2 F2 A2|B3 A Bd|F2 E2 DE|
F2 A,3 A,|B,2 D4|D3 E FG|E4 DE|
F3 E FA|B2 d2 DE|F3 D EF|A,2 B,2 A,B,|
D2 B3 A|FA E2 DE|F3 G E2|D4:|:A2|
d3 e fe|dB A2 dc|B2 B/c/d cB|AF E2 DE|
F2 d3 A|BA F2 DF|E3 F A2|B4 A/B/c|
d2 e2 f2|ec A2 dc|B/c/(dd2) D2|F2 E2 DE|
F2 B3 A|FA E2 DE|F3 G E2|D4:|

